!!!SOCIAL_FUNCTION:	songs of the drum religion
!!!PDT:	1932
!!!OTL: No_87_Song_for_Owner_of_Drum_(b).krn
!!!REG: Wisconsin
!!!LANG: Non-Tone
!!!LING_GROUP: Algonquin
**kern
*staff1
=1-
*clefF4
*k[b-]
*M2/4
4f\
4f\
=2
8.f\L
16f\Jk
4d\
=3
4c\
4c\
=4
8.c\L
16c\Jk
8c\L
16G\Jk
16r
=5
4f\
4f\
=6
8.f\L
16f\Jk
4d\
=7
4c\
4c\
=8
8.c\L
16c\Jk
8c\
8r
=9
=
4d\
4e\
=10
8.e\L
16d\Jk
4c\
=11
12c\L
12A\
12G\J
4G\
=12
12A\L
12A\
12G\J
4F\
=13
12F\L
12E\
12C\J
4C/
=14
8.C/L
16C/Jk
8C/
8r
=15
4D\
4F\
=16
8.F\L
16D\Jk
4D\
=17
8C/L
[8C/J
8C/L]
8C/J
=18
2C/
=19
4C/
8r
16r
16c\
=20||
*M3/4
8.c\L
16c\Jk
8.c\L
16c\Jk
4c\
=21:|!
*M2/4
2C/
=22
4C/
4r
==
*-
